Origami/48x48/apps/anoise.svg

<svg width="48" height="48" version="1.1" viewBox="0 0 48 48" xmlns="http://www.w3.org/2000/svg">
 <circle cx="24" cy="25" r="20" style="opacity:.2"/>
 <circle cx="24" cy="24" r="20" style="fill:#ff8a18"/>
 <path d="M 24 4 A 20 20 0 0 0 4 24 A 20 20 0 0 0 4.0215 24.582 A 20 20 0 0 1 24 5 A 20 20 0 0 1 43.979 24.418 A 20 20 0 0 0 44 24 A 20 20 0 0 0 24 4 z" style="fill:#ffffff;opacity:.2"/>
 <circle cx="24" cy="25" r="14" style="opacity:.2"/>
 <circle cx="24" cy="24" r="14" style="fill:#ffffff"/>
 <path d="m21.515625 12.515625l-2.830078 2.828125 8.486328 8.484375-8.486328 8.486328 2.830078 2.828125 8.484375-8.486328 2.828125-2.828125-2.828125-2.828125-8.484375-8.484375z" style="fill:#3f3f3f"/>
</svg>

<svg xmlns="http://www.w3.org/2000/svg" width="48" height="48" version="1.1" viewBox="0 0 48 48">
 <circle style="opacity:0.2" cx="24" cy="25" r="20"/>
 <circle style="fill:#ff8a18" cx="24" cy="24" r="20"/>
 <path style="opacity:0.2;fill:#ffffff" d="M 24 4 A 20 20 0 0 0 4 24 A 20 20 0 0 0 4.0215 24.582 A 20 20 0 0 1 24 5 A 20 20 0 0 1 43.979 24.418 A 20 20 0 0 0 44 24 A 20 20 0 0 0 24 4 z"/>
 <circle style="opacity:0.2" cx="24" cy="25" r="14"/>
 <circle style="fill:#ffffff" cx="24" cy="24" r="14"/>
 <path style="fill:#3f3f3f" d="M 21.515625 12.515625 L 18.685547 15.34375 L 27.171875 23.828125 L 18.685547 32.314453 L 21.515625 35.142578 L 30 26.65625 L 32.828125 23.828125 L 30 21 L 21.515625 12.515625 z"/>
</svg>
